!!!COM:	Bach, Johann Sebastian
!!!OMV:	Allein Gott in der H&ouml;h sei Ehr
!!!OTL:	Allein Gott in der H&ouml;h sei Ehr
**kern	**fb	**kern	**kern	**kern	**kern
*part5	*part5	*part4	*part3	*part2	*part1
*staff5	*	*staff4	*staff3	*staff2	*staff1
*I"Continuo	*	*I"Voice	*I"Voice	*I"Voice	*I"Voice
*I'Cont.	*	*I'V	*I'V	*I'V	*I'V
*clefF4	*	*clefF4	*clefGv2	*clefG2	*clefG2
*Trd0c0	*	*	*	*	*
*k[f#c#g#]	*	*k[f#c#g#]	*k[f#c#g#]	*k[f#c#g#]	*k[f#c#g#]
*M4/4	*	*M4/4	*M4/4	*M4/4	*M4/4
4AA	.	4AA	8c#L	4e	8aL
.	.	.	8dJ	.	8bJ
=2	=2	=2	=2	=2	=2
8AL	.	8AL	4e	4a	4cc#
8G#J	.	8G#J	.	.	.
4F#	6	4F#	4f#	4a	4dd
4E	.	4E	8BL	4g#	4ee
.	.	.	8c#J	.	.
4BB	5	4BB	4d	8f#L	4dd
.	6	.	.	8g#J	.
=3	=3	=3	=3	=3	=3
8C#L	6	8C#L	4e	4a	4cc#
8DJ	.	8DJ	.	.	.
4E	.	4E	4e	4g#	4b
4AA;	.	4AA;	4e;	4a;	4cc#;
8AL	.	8AL	4A	4e	4cc#
8G#J	.	8G#J	.	.	.
=4	=4	=4	=4	=4	=4
8F#L	.	8F#L	2A	4f#	4cc#
8EJ	.	8EJ	.	.	.
8DL	6 5	8DL	.	8f#L	8bL
8C#J	.	8C#J	.	8eJ	8cc#J
8BBL	7	8BBL	8G#L	8dL	8ddL
8AAJ	.	8AAJ	8AJ	8eJ	8cc#J
4GG#	6 5	4GG#	4G#	4e	4b
=	=	=	=	=	=
8C#L	6	8C#L	8eL	8eL	4a
8AAJ	.	8AAJ	8c#J	8aJ	.
4E	.	4E	16dLL	4g#	4b
.	.	.	16c#J	.	.
.	.	.	8dJ	.	.
4AA;	.	4AA;	4c#;	4e;	4a;
=5:|!	=5:|!	=5:|!	=5:|!	=5:|!	=5:|!
4AA	.	4AA	4c#	4e	4a
=6	=6	=6	=6	=6	=6
4E	.	4E	4G#	4e	4b
8DL	7 #5\	8DL	4A#X	4e	4cc#
8C#J	.	8C#J	.	.	.
4BB	.	4BB	4B	8dL	4dd
.	.	.	.	8eJ	.
8EL	6 #4| 2	8EL	4A#	4f#	4cc#
8F#J	.	8F#J	.	.	.
=7	=7	=7	=7	=7	=7
!!linebreak:original
4Gn	7	4Gn	4B	8f#L	4b
.	6	.	.	8eJ	.
4F#	7 #	4F#	4A#X	8e	4cc#
.	.	.	.	16dLL	.
.	.	.	.	16c#JJ	.
4BB;	.	4BB;	4F#;	4d;	4b;
4G#X	6	4G#X	4B	4e	4b
=8	=8	=8	=8	=8	=8
8AL	.	8AnL	4An	4e	4cc#
8G#J	.	8G#J	.	.	.
4F#	6	4F#	4A	4f#	4dd
4E	.	4E	4B	4g#	4ee
8F#L	6	8F#L	8AL	4f#	4dd
8G#J	.	8G#J	8BJ	.	.
=9	=9	=9	=9	=9	=9
8AL	.	8AL	4c#	4e	4cc#
8A#XJ	.	8A#XJ	.	.	.
4B	5	4B	8F#L	8d	4b
.	6	.	8G#J	16f#LL	.
.	.	.	.	16e#XJJ	.
4F#;	.	4F#;	4A;	4f#;	4cc#;
8F#L	.	8F#L	4c#	4f#	4an
8EJ	.	8EJ	.	.	.
=10	=10	=10	=10	=10	=10
4D	6	4D	8F#L	4f#	4b
.	.	.	8G#J	.	.
4C#	6	4C#	4An	4e	4cc#
8BBL	7	8BBL	4A	4d	8ddL
8C#J	.	8C#J	.	.	8cc#J
4D	6 4 2	4D	4G#	4e	4b
=11	=11	=11	=11	=11	=11
8C#L	6	8C#L	8AL	8eL	8aL
8DJ	.	8DJ	8dJ	8f#J	8f#J
4E	.	4E	4B	4e	4g#
4AA;	.	4AA;	4c#;	4e;	4a;
=||	=||	=||	=||	=||	=||
*-	*-	*-	*-	*-	*-
!!!system-decoration: s1,s2,s3,s4,s5
